public/icons/cloud-sun.svg

<?xml version="1.0" encoding="utf-8"?>
<!-- Uploaded to: SVG Repo, www.svgrepo.com, Generator: SVG Repo Mixer Tools -->
<svg width="800px" height="800px" viewBox="0 0 24 24" fill="none" xmlns="http://www.w3.org/2000/svg">
<path opacity="0.5" d="M11.5 8C11.5 9.933 9.933 11.5 8 11.5C6.067 11.5 4.5 9.933 4.5 8C4.5 6.067 6.067 4.5 8 4.5C9.933 4.5 11.5 6.067 11.5 8Z" fill="#1C274C"/>
<g opacity="0.5">
<path fill-rule="evenodd" clip-rule="evenodd" d="M7.5 1.25C7.91421 1.25 8.25 1.58579 8.25 2V2.5C8.25 2.91421 7.91421 3.25 7.5 3.25C7.08579 3.25 6.75 2.91421 6.75 2.5V2C6.75 1.58579 7.08579 1.25 7.5 1.25ZM3.08086 3.08059C3.37375 2.78769 3.84862 2.78769 4.14152 3.08059L4.35758 3.29665C4.65047 3.58954 4.65047 4.06441 4.35758 4.35731C4.06468 4.6502 3.58981 4.6502 3.29692 4.35731L3.08086 4.14125C2.78796 3.84835 2.78796 3.37348 3.08086 3.08059ZM11.919 3.08073C12.2119 3.37362 12.2119 3.8485 11.919 4.14139L11.7029 4.35745C11.41 4.65034 10.9352 4.65034 10.6423 4.35745C10.3494 4.06456 10.3494 3.58968 10.6423 3.29679L10.8583 3.08073C11.1512 2.78784 11.6261 2.78784 11.919 3.08073ZM1.25 7.5C1.25 7.08579 1.58579 6.75 2 6.75H2.5C2.91421 6.75 3.25 7.08579 3.25 7.5C3.25 7.91421 2.91421 8.25 2.5 8.25H2C1.58579 8.25 1.25 7.91421 1.25 7.5ZM4.35758 10.6427C4.65047 10.9356 4.65047 11.4105 4.35758 11.7034L4.14152 11.9194C3.84862 12.2123 3.37375 12.2123 3.08086 11.9194C2.78796 11.6265 2.78796 11.1516 3.08086 10.8588L3.29692 10.6427C3.58981 10.3498 4.06468 10.3498 4.35758 10.6427Z" fill="#1C274C"/>
</g>
<path d="M16.2857 22C19.4416 22 22 19.4717 22 16.3529C22 13.8811 20.393 11.7802 18.1551 11.015C17.8371 8.19371 15.4159 6 12.4762 6C9.32028 6 6.7619 8.52827 6.7619 11.6471C6.7619 12.3369 6.88706 12.9978 7.11616 13.6089C6.8475 13.5567 6.56983 13.5294 6.28571 13.5294C3.91878 13.5294 2 15.4256 2 17.7647C2 20.1038 3.91878 22 6.28571 22H16.2857Z" fill="#1C274C"/>
</svg>

<svg xmlns="http://www.w3.org/2000/svg" width="800" height="800" fill="none" viewBox="0 0 24 24"><path fill="#1C274C" d="M11.5 8a3.5 3.5 0 1 1-7 0 3.5 3.5 0 0 1 7 0Z" opacity=".5"/><path fill="#1C274C" fill-rule="evenodd" d="M7.5 1.25c.41 0 .75.34.75.75v.5a.75.75 0 0 1-1.5 0V2c0-.41.34-.75.75-.75ZM3.08 3.08c.3-.3.77-.3 1.06 0l.22.22A.75.75 0 0 1 3.3 4.36l-.22-.22a.75.75 0 0 1 0-1.06Zm8.84 0c.3.3.3.77 0 1.06l-.22.22a.75.75 0 1 1-1.06-1.06l.22-.22c.3-.3.77-.3 1.06 0ZM1.25 7.5c0-.41.34-.75.75-.75h.5a.75.75 0 0 1 0 1.5H2a.75.75 0 0 1-.75-.75Zm3.1 3.14c.3.3.3.77 0 1.06l-.2.22a.75.75 0 0 1-1.07-1.06l.22-.22c.29-.29.76-.29 1.06 0Z" clip-rule="evenodd" opacity=".5"/><path fill="#1C274C" d="M16.29 22A5.68 5.68 0 0 0 22 16.35c0-2.47-1.6-4.57-3.84-5.34A5.7 5.7 0 0 0 12.48 6a5.68 5.68 0 0 0-5.36 7.6A4.26 4.26 0 0 0 2 17.77 4.26 4.26 0 0 0 6.29 22h10Z"/></svg>
